X:160
T:Yellow Cow, The
T:Mother and Child
S:Sean Gavin
R:Reel
M:4/4
K:D
A2GE FDDF | EFGF EFGE | A2GE FDDF | EFGE A4 :|
|: cAA2 (3Bcd eg | fdec dcAd | cAA2 (3Bcd eg | fdec d4 :|


